public/copy.svg

<svg width="20" height="24" viewBox="0 0 20 24" fill="none" xmlns="http://www.w3.org/2000/svg">
<path d="M6.77647 19.2C6.15529 19.2 5.62353 18.965 5.18118 18.495C4.73882 18.025 4.51765 17.46 4.51765 16.8V2.4C4.51765 1.74 4.73882 1.175 5.18118 0.705C5.62353 0.235 6.15529 0 6.77647 0H16.9412C17.5624 0 18.0941 0.235 18.5365 0.705C18.9788 1.175 19.2 1.74 19.2 2.4V16.8C19.2 17.46 18.9788 18.025 18.5365 18.495C18.0941 18.965 17.5624 19.2 16.9412 19.2H6.77647ZM6.77647 16.8H16.9412V2.4H6.77647V16.8ZM2.25882 24C1.63765 24 1.10588 23.765 0.663529 23.295C0.221177 22.825 0 22.26 0 21.6V6C0 5.66 0.108235 5.375 0.324706 5.145C0.541176 4.915 0.809412 4.8 1.12941 4.8C1.44941 4.8 1.71765 4.915 1.93412 5.145C2.15059 5.375 2.25882 5.66 2.25882 6V21.6H13.5529C13.8729 21.6 14.1412 21.715 14.3576 21.945C14.5741 22.175 14.6824 22.46 14.6824 22.8C14.6824 23.14 14.5741 23.425 14.3576 23.655C14.1412 23.885 13.8729 24 13.5529 24H2.25882Z" fill="white"/>
</svg>

<svg xmlns="http://www.w3.org/2000/svg" width="20" height="24" fill="none" xmlns:v="https://vecta.io/nano"><path d="M6.776 19.2c-.621 0-1.153-.235-1.595-.705s-.664-1.035-.664-1.695V2.4c0-.66.221-1.225.664-1.695S6.155 0 6.776 0h10.165c.621 0 1.153.235 1.595.705S19.2 1.74 19.2 2.4v14.4c0 .66-.221 1.225-.663 1.695s-.974.705-1.595.705H6.776zm0-2.4h10.165V2.4H6.776v14.4zM2.259 24c-.621 0-1.153-.235-1.595-.705S0 22.26 0 21.6V6a1.2 1.2 0 0 1 .325-.855 1.06 1.06 0 0 1 .805-.345 1.06 1.06 0 0 1 .805.345A1.2 1.2 0 0 1 2.259 6v15.6h11.294a1.06 1.06 0 0 1 .805.345 1.2 1.2 0 0 1 .325.855 1.2 1.2 0 0 1-.325.855 1.06 1.06 0 0 1-.805.345H2.259z" fill="#fff"/></svg>
